packages/icons/raw/imported/TypeZoomIn.svg

<svg width="32" height="32" viewBox="0 0 32 32" fill="none" xmlns="http://www.w3.org/2000/svg">
<g filter="url(#filter0_d_2567:567)">
<path d="M19.4121 13.6045C19.4121 14.7603 19.0694 15.8901 18.4273 16.8511C17.7851 17.8121 16.8725 18.5611 15.8047 19.0034C14.7369 19.4457 13.5619 19.5614 12.4283 19.336C11.2947 19.1105 10.2535 18.5539 9.43621 17.7366C8.61894 16.9194 8.06238 15.8781 7.8369 14.7446C7.61142 13.611 7.72714 12.436 8.16944 11.3682C8.61174 10.3004 9.36075 9.38771 10.3217 8.74559C11.2827 8.10347 12.4126 7.76074 13.5684 7.76074C15.1182 7.76074 16.6046 8.37642 17.7005 9.47234C18.7964 10.5683 19.4121 12.0546 19.4121 13.6045Z" fill="white"/>
<path d="M13.5684 19.4482C16.7958 19.4482 19.4121 16.8319 19.4121 13.6045C19.4121 10.3771 16.7958 7.76074 13.5684 7.76074C10.3409 7.76074 7.72461 10.3771 7.72461 13.6045C7.72461 16.8319 10.3409 19.4482 13.5684 19.4482Z" stroke="black"/>
<path d="M16.7559 12.542H14.6309V10.417H12.5059V12.542H10.3809V14.6457H12.5059V16.792H14.6309V14.6457H16.7559V12.542Z" fill="black"/>
<path d="M18.4057 16.9442L16.9031 18.4468L22.6956 24.2393L24.1982 22.7367L18.4057 16.9442Z" fill="black"/>
</g>
<defs>
<filter id="filter0_d_2567:567" x="-2" y="0" width="36" height="36" filterUnits="userSpaceOnUse" color-interpolation-filters="sRGB">
<feFlood flood-opacity="0" result="BackgroundImageFix"/>
<feColorMatrix in="SourceAlpha" type="matrix" values="0 0 0 0 0 0 0 0 0 0 0 0 0 0 0 0 0 0 127 0" result="hardAlpha"/>
<feOffset dy="2"/>
<feGaussianBlur stdDeviation="1"/>
<feColorMatrix type="matrix" values="0 0 0 0 0 0 0 0 0 0 0 0 0 0 0 0 0 0 0.25 0"/>
<feBlend mode="normal" in2="BackgroundImageFix" result="effect1_dropShadow_2567:567"/>
<feBlend mode="normal" in="SourceGraphic" in2="effect1_dropShadow_2567:567" result="shape"/>
</filter>
</defs>
</svg>

<svg width="32" height="32" fill="none" xmlns="http://www.w3.org/2000/svg"><g filter="url(#a)"><path d="M19.412 13.604a5.844 5.844 0 1 1-11.687 0 5.844 5.844 0 0 1 11.687 0Z" fill="#fff"/><path d="M13.568 19.448a5.844 5.844 0 1 0 0-11.687 5.844 5.844 0 0 0 0 11.687Z" stroke="#000"/><path d="M16.756 12.542H14.63v-2.125h-2.125v2.125H10.38v2.104h2.125v2.146h2.125v-2.146h2.125v-2.104ZM18.406 16.944l-1.503 1.503 5.793 5.792 1.502-1.502-5.792-5.793Z" fill="#000"/></g><defs><filter id="a" x="-2" y="0" width="36" height="36" filterUnits="userSpaceOnUse" color-interpolation-filters="sRGB"><feFlood flood-opacity="0" result="BackgroundImageFix"/><feColorMatrix in="SourceAlpha" values="0 0 0 0 0 0 0 0 0 0 0 0 0 0 0 0 0 0 127 0" result="hardAlpha"/><feOffset dy="2"/><feGaussianBlur stdDeviation="1"/><feColorMatrix values="0 0 0 0 0 0 0 0 0 0 0 0 0 0 0 0 0 0 0.25 0"/><feBlend in2="BackgroundImageFix" result="effect1_dropShadow_2567:567"/><feBlend in="SourceGraphic" in2="effect1_dropShadow_2567:567" result="shape"/></filter></defs></svg>
